note-alert.svg

<svg fill="currentColor" viewBox="0 0 24 24"><path d="M3 3c-1.11 0-2 .89-2 2v14a2 2 0 0 0 2 2h14c1.11 0 2-.89 2-2V9l-6-6zm9 7V4.5l5.5 5.5zm11-3v6h-2V7zm-2 8h2v2h-2z"/></svg>

<svg  viewBox="0 0 24 24" fill="currentColor"><path  d="M3 3C1.89 3 1 3.89 1 5V19C1 20.11 1.9 21 3 21H17C18.11 21 19 20.11 19 19V9L13 3H3M12 10V4.5L17.5 10H12M23 7V13H21V7H23M21 15H23V17H21V15Z"/></svg>
